X:1
T:Now Let Me Fly
M:4/4
L:1/8
K:F
 F2 D2 CC DD| FF FF F4| F2 D2 CC DD| F2 G2 F4| F2 DD CC D2| FF FF A2 CD|\
 F2 DD C2 DD| F2 G2 F2 F2| F D2 C- C4-| C6 F2| A c2 c- c4-| c6 c2|\
 d c2 A- A2 A2| c A2 F- F2 D2| G3 F- F4| z8|
